src/assets/icons/icon_secession.svg

<svg width="24" height="24" viewBox="0 0 24 24" fill="none" xmlns="http://www.w3.org/2000/svg">
<path d="M12.0684 2.08897C15.2889 1.58288 16.8999 1.32953 17.9502 2.22765C19.0003 3.12575 19 4.75607 19 8.01573V11.0001H13.0811L15.7812 7.62511L14.2188 6.37511L10.2188 11.3751L9.71973 12.0001L10.2188 12.6251L14.2188 17.6251L15.7812 16.3751L13.0811 13.0001H19V15.9835C19 19.2432 19.0002 20.8735 17.9502 21.7716C16.8999 22.6697 15.2889 22.4164 12.0684 21.9103L8.37891 21.3312C6.76622 21.0777 5.95946 20.9501 5.47949 20.3888C4.99996 19.8275 5 19.011 5 17.379V6.62022C5 4.98811 4.99988 4.17173 5.47949 3.61046C5.95945 3.04919 6.7663 2.92246 8.37891 2.66905L12.0684 2.08897Z" fill="#FC4B4B"/>
</svg>

<svg xmlns="http://www.w3.org/2000/svg" fill="none" viewBox="0 0 24 24"><path fill="#fc4b4b" d="M12.068 2.089c3.22-.506 4.832-.76 5.882.139C19 3.126 19 4.756 19 8.016V11h-5.919l2.7-3.375-1.562-1.25-4 5-.5.625.5.625 4 5 1.562-1.25-2.7-3.375H19v2.983c0 3.26 0 4.89-1.05 5.789-1.05.898-2.661.644-5.882.138l-3.69-.579c-1.612-.253-2.419-.38-2.899-.942C5 19.828 5 19.01 5 17.379V6.62c0-1.632 0-2.448.48-3.01.48-.56 1.286-.688 2.899-.941z"/></svg>
